X:1
T:The Well-Tempered Clavier Part II Praeludium III
T:BWV 872
T:J. S. Bach
%%score { ( 1 2 ) | ( 3 4 ) }
L:1/8
M:4/4
K:C#
V:1 treble nm="Harp"
V:2 treble 
V:3 bass 
V:4 bass 
V:1
 z/ E/G/c/- c2 z/ E/G/c/- c2 | z/ F/A/c/- c2 z/ F/G/d/- d2 | z/ E/G/d/- d2 z/ E/G/c/- c2 | %3
 z/ D/^^F/A/- A2 z/ D/G/B/- B2 | z/ E/A/c/- c2 z/ D/A/c/- c2 | z/ D/A/c/- c2 z/ D/G/B/- B2 | %6
 z/ E/A/^^c/- ^^c2 z/ D/A/d/- d2 | z/ E/^^G/d/- d2 z/ E/A/c/- c2 | z/ F/B/d/- d2 z/ G/B/e/- e2 | %9
 z/ F/c/e/- e2 z/ F/G/d/- d2 | z/ F/G/d/- d2 z/ E/G/c/- c2 | z/ D/F/c/- c2 z/ D/F/=B/- B2 | %12
 z/ C/E/=B/- B2 z/ C/F/A/- A2 | z/ D/F/G/- G2 z/ A,/E/G/- G2 | z/ ^^C/E/G/- G2 z/ ^C/D/^^F/- F2 | %15
 z/ B,/D/^F/- F2 z/ =B,/C/E/- E2 | z/ A,/C/E/- E2 z/ A,/C/D/- D2 | z/ G,/B,/D/- D2 z/ G,/C/E/- E2 | %18
 z/ A,/D/F/- F2 z/ G,/D/F/- F2 | z/ G,/D/F/- F2 z/ G,/C/E/- E2 | z/ A,/D/^^F/- F2 z/ =B,/D/G/- G2 | %21
 z/ =B,/D/G/- G2 z/ B,/^^C/G/- G2 | z/ =B,/D/G/- G2 z/ ^^C/E/G/- G2 | %23
 z/ C/=E/G/- G2 z/ C/D/^^F/- F2 |[M:3/8][Q:1/4=132]"^Allegro" GD/C/D/E/ |{E} F3- | FEA | %27
 DG/4F/4 G3/2- | GF/E/F/G/ |{F} E3 | DG/^^F/G/A/ | B/G/c/d/c/B/ | A/B/c/4B/4c/4B/4c/4B/4c/ | ced | %34
 cf/g/f/e/ | d2- d/d/ | c>Bc/d/ | Gc/d/c/B/ | AB>B | c2- c/c/ | B z z | z A/G/A/B/ | c3- | cBe | %44
 A2 d | G2 c- | cB/A/B/d/ | GcF | E D2 | !fermata!C3 |] %50
V:2
 z2 G/F/G/E/ z2 G/F/G/E/ | z2 A/G/A/F/ z2 G/F/G/E/ | z2 G/F/G/F/ z2 G/F/G/E/ | %3
 z2 ^^F/E/F/D/ z2 G/F/G/D/ | z2 A/G/A/E/ z2 A/G/A/D/ | z2 A/G/A/D/ z2 G/^^F/G/D/ | %6
 z2 A/G/A/E/ z2 A/G/A/D/ | z2 ^^G/^^F/G/E/ z2 A/^^G/A/E/ | z2 B/A/B/F/ z2 B/A/B/G/ | %9
 z2 c/B/c/F/ z2 G/F/G/F/ | z2 G/F/G/F/ z2 G/F/G/E/ | z2 F/E/F/D/ z2 F/E/F/D/ | %12
 z2 E/D/E/C/ z2 F/E/F/C/ | z2 F/E/F/D/ z2 E/D/E/^^C/ | z2 E/D/E/^^C/ z2 D/^C/D/C/ | %15
 z2 D/C/D/B,/ z2 C/=B,/C/B,/ | z2 C/B,/C/A,/ z2 C/B,/C/A,/ | z2 B,/A,/B,/G,/ z2 C/B,/C/G,/ | %18
 z2 D/C/D/A,/ z2 D/C/D/G,/ | z2 D/C/D/G,/ z2 C/B,/C/G,/ | z2 D/C/D/A,/ z2 D/C/D/=B,/ | %21
 z2 D/C/D/=B,/ z2 D/^^C/D/C/ | z2 D/^C/D/=B,/ z2 E/D/E/^^C/ | z2 =E/D/=E/C/ z2 D/C/D/C/ | %24
[M:3/8] x3 | x3 | x3 | x3 | x3 | x3 | x3 | x3 | F3- | F<EG- | G/E/C/E/D/C/ | B,BE- | E/E/ F2- | %37
 F/E/- E2 | ^^F/D/G/F/G- | G/G/^^F/E/^F | GD/C/D/E/ | F3- | FEA | ^^G2 ^G- | G^^F^F- | FE=E | D3- | %47
 DCD- | D/CA,/B, |[I:staff +1] G,3 |] %50
V:3
 G,G,CC =B,B,B,B, | A,A,F,F, ^B,B,B,B, | CCCC G,G,E,E, | A,A,A,A, G,G,D,G, | G,G,G,G, ^^F,F,F,F, | %5
 G,^^F,E,F, G,G,B,B, | A,E,^^C,A,, D,D,F,F, | B,,B,,E,E, E,E,CC | B,FDB, EEEE | CCA,A, DDB,B, | %10
 G,G,B,B, CC=B,B, | A,A,A,A, =B,B,B,B, | G,G,G,G, A,A,A,A, | D,D,D,D, E,E,A,A, | %14
 =B,B,B,B, A,A,A,A, | G,G,G,G, G,G,G,G, | F,F,F,F, F,F,F,F, | D,D,D,D, C,C,G,,C, | %18
 C,C,B,,A,, B,,B,,B,,B,, | C,B,,A,,B,, C,C,E,E, | D,^^F,A,F, D,D,G,G, | G,G,G,G, G,G,G,G, | %22
 G,G,G,G, =B,B,B,B, | A,A,A,A, A,A,A,A, |[M:3/8] G, z z | z A,/G,/A,/B,/ |{B,} C3- | CB,E | %28
 A,E/4D/4 E3/2- | E C2- | CB,/A,/B,/C/ | DG,C | D,G,G,, | C,C/D/C/B,/ | A,3- | %35
 A,/A,/^^G,/^^F,/G,/E,/ | A,A,,/G,,/A,,/B,,/ | C,3- | C,B,,E, | A,,D,D,, | %40
 G,,/^^F,,/G,,/A,,/B,,/C,/ | D,/^^C,/D,/E,/F,/G,/ | A,/^^G,/A,/B,/C/D/ | E/D/E/F/E/D/ | %44
 ^^C/A,/D/E/D/^C/ | B,/G,/C/=B,/A,/G,/ | ^^F,/D,/G,/A,/G,/^F,/ | E,/F,/E,/D,/E,/F,/ | G,F,,G,, | %49
 !fermata!C,,3 |] %50
V:4
 C,2 z2 C,2 z2 | C,2 z2 C,2 z2 | C,2 z2 C,2 z2 | C,2 z2 B,,2 z2 | A,,2 z2 D,2 z2 | %5
 G,,2 z2 G,,2 z2 | G,,2 z2 F,,2 z2 | E,,2 z2 A,,2 z2 | A,2 z2 G,2 z2 | A,2 z2 B,2 z2 | %10
 E,2 z2 E,2 z2 | F,2 z2 G,2 z2 | C,2 z2 F,2 z2 | B,,2 z2 ^^C,2 z2 | D,2 z2 D,2 z2 | E,2 z2 C,2 z2 | %16
 F,,2 z2 F,,2 z2 | F,,2 z2 E,,2 z2 | D,,2 z2 G,,2 z2 | C,,2 z2 C,,2 z2 | A,,2 z2 =B,,2 z2 | %21
 =E,2 z2 ^E,2 z2 | D,2 z2 D,2 z2 | D,2 z2 D,2 z2 |[M:3/8] G,, z z | x3 | x3 | x3 | x3 | %29
 z E,/D,/E,/F,/ | G,3- | G,E,A, | x3 | x3 | x3 | x3 | x3 | x3 | x3 | x3 | x3 | x3 | x3 | x3 | x3 | %45
 x3 | x3 | x3 | z2 z/ F,/ | E,3 |] %50

